X: 1
T:An adventurous lil tune :)
M:3/3
L:1/4
Q:1/4=150
K:D minor clef=bass
%
D, F, _D, | D, F, _D, | D, E, F, | A,2 z | B,/A,/ G, F, | A,/F,/ D, E, | F,/G,/ F, E, | D,2 z |
_D,/=D,/ .E,/ z/ .E,/ z/ | D,/E,/ .F,/ z/ .F,/ z/ | E,/F,/ .G,/ z/ .G,/ z/ | F,/G,/ A,2 | z B,/A,/ .G,/ z/ |
.G,/ z/ A,/G,/ .F,/ z/ | .F,/ z/ G,/F,/ .E,/ z/ | .E,/ z/ D,/E,/ !fermata!D, |]